X:7822
T:Free as a bird
C:anon.
Z:Transcribed by Frank Nordberg - http://www.musicaviva.com
F:http://abc.musicaviva.com/tunes/anon/free-as-a-bird/free-as-a-bird-1.abc
M:C
L:1/8
K:Em
"Em"E2B>B B2c>B|"Em"B3A/G/ "B7"F4|"Em"E2G>G "Am"A2"F#7"^A>A|
"B7"B4F2z2|"Em"E2B>B B2c>B|"Em"B3A/G/ "B7"F4|
"Em"E2G>G "B7"F2B>B|"Em"E6z2||"G"G2B>A G2"C"e>d|
"G"d3c/B/ "D7"A2z2|"G"G2A>B "C"cd"Am/C"BA|"G"G3A/G/ "D7"F2z2||
"Em"E2B>B B2c>B|"Em"B3A/G/ "B7"F2 z F|"Em"E2G>G "B7"F2B>B|
"Em"E4"Am6"c4|"Em/B"B2G>E "B7"B,2G>F|"Em"E8|]
W:
W:
W:  From Musica Viva - http://www.musicaviva.com
W:  the Internet center for free sheet music downloads.
